X: 30293
T: HON. MISS DILLON'S WALTZ
C:
%R: waltz
B: Elias Howe "The Musician's Companion" Part 3 1844 p.29 #3
S: http://imslp.org/wiki/The_Musician's_Companion_(Howe,_Elias)
S: https://archive.org/stream/firstthirdpartof03howe/#page/66/mode/1up
Z: 2016 John Chambers <jc:trillian.mit.edu>
N: Bars 3 and 4 have an extra beat; not fixed.
M: 3/8
L: 1/16
K: D
% - - - - - - - - - - - - - - - - - - - - - - - - -
a>f |\
d2d2 a>f | d2d2 a>f | d2d'2c'2 | b4 bagf |\
e2e2 bagf | e2e2b2 | a>bagfe | d4 :|
|: cd |\
e>cA2 a2 | f2d2f2 | e>cA2 a2 | f2c2d2 |\
e>cA2 a2 | f2d2b2 | ^g2e2g2 | a4 :|
|: a2 |\
gafaea | fadafa | gafaea | d2d'2a2 |\
gafaea | fadafa | gbegce | d4 :|
% - - - - - - - - - - - - - - - - - - - - - - - - -
